img/icon-github.svg

<svg width="30" height="30" viewBox="0 0 30 30" xmlns="http://www.w3.org/2000/svg"><title>Shape</title><path d="M29.2 11.4C27.5 4.9 21.6.5 15 .5h-.3-.1c-.8 0-1.6.1-2.5.3-.5.1-.9.2-1.3.3C4.9 2.8.7 8 .4 14.3c-.2 5.4 2 9.7 6.4 12.8 1.1.8 2.2 1.3 3.5 1.7.1 0 .3.1.4.1.4 0 .7-.2.7-.6v-2.7c-.7 0-1.4.1-2 .1-1.4-.1-2.5-.7-3-2.1-.3-.8-.8-1.5-1.6-2-.1-.1-.3-.2-.4-.3-.2-.2-.1-.4.1-.4s.5-.1.7 0c.9.2 1.5.8 2 1.5 1 1.6 2.5 1.8 4 1.2.1 0 .2-.1.2-.2.1-.7.4-1.3.9-1.8-.6-.1-1.2-.2-1.8-.4-2.1-.5-3.6-1.7-4.3-3.8-.2-.5-.3-1.1-.4-1.6-.3-1.9 0-3.7 1.3-5.2.1-.1.1-.2.1-.3-.3-1-.3-2.1 0-3.1.1-.8.1-.8.8-.7 1.1.2 2.1.7 3.1 1.3.1.1.3.1.5.1 2.3-.6 4.5-.6 6.8 0 .2 0 .4 0 .5-.1.5-.3 1-.6 1.5-.8.6-.3 1.3-.5 2-.5.2 0 .3.1.4.3.4 1.1.5 2.2.1 3.4-.1.2 0 .3.1.5.5.6.9 1.4 1.1 2.2.4 1.8.2 3.7-.6 5.4-.8 1.7-2.3 2.5-4 3-.6.1-1.2.2-1.8.4.8.8 1 1.9.9 2.9v3.6c0 .6.3.9.7.9.1 0 .3 0 .4-.1 7.2-2.6 11.4-10.3 9.5-17.6z" fill="#FFF" fill-rule="evenodd"/></svg>

<?xml version="1.0" encoding="UTF-8" standalone="no"?>
<svg width="30px" height="30px" viewBox="0 0 30 30" version="1.1" xmlns="http://www.w3.org/2000/svg" xmlns:xlink="http://www.w3.org/1999/xlink" xmlns:sketch="http://www.bohemiancoding.com/sketch/ns">
    <!-- Generator: Sketch 3.3.3 (12072) - http://www.bohemiancoding.com/sketch -->
    <title>Shape</title>
    <desc>Created with Sketch.</desc>
    <defs></defs>
    <g id="Page-1" stroke="none" stroke-width="1" fill="none" fill-rule="evenodd" sketch:type="MSPage">
        <g id="speaker-github" sketch:type="MSLayerGroup" fill="#FFFFFF">
            <path d="M29.2,11.4 C27.5,4.9 21.6,0.5 15,0.5 L14.7,0.5 C14.7,0.5 14.7,0.5 14.6,0.5 C13.8,0.5 13,0.6 12.1,0.8 C11.6,0.9 11.2,1 10.8,1.1 C4.9,2.8 0.7,8 0.4,14.3 C0.2,19.7 2.4,24 6.8,27.1 C7.9,27.9 9,28.4 10.3,28.8 C10.4,28.8 10.6,28.9 10.7,28.9 C11.1,28.9 11.4,28.7 11.4,28.3 L11.4,25.6 C10.7,25.6 10,25.7 9.4,25.7 C8,25.6 6.9,25 6.4,23.6 C6.1,22.8 5.6,22.1 4.8,21.6 C4.7,21.5 4.5,21.4 4.4,21.3 C4.2,21.1 4.3,20.9 4.5,20.9 C4.7,20.9 5,20.8 5.2,20.9 C6.1,21.1 6.7,21.7 7.2,22.4 C8.2,24 9.7,24.2 11.2,23.6 C11.3,23.6 11.4,23.5 11.4,23.4 C11.5,22.7 11.8,22.1 12.3,21.6 C11.7,21.5 11.1,21.4 10.5,21.2 C8.4,20.7 6.9,19.5 6.2,17.4 C6,16.9 5.9,16.3 5.8,15.8 C5.5,13.9 5.8,12.1 7.1,10.6 C7.2,10.5 7.2,10.4 7.2,10.3 C6.9,9.3 6.9,8.2 7.2,7.2 C7.3,6.4 7.3,6.4 8,6.5 C9.1,6.7 10.1,7.2 11.1,7.8 C11.2,7.9 11.4,7.9 11.6,7.9 C13.9,7.3 16.1,7.3 18.4,7.9 C18.6,7.9 18.8,7.9 18.9,7.8 C19.4,7.5 19.9,7.2 20.4,7 C21,6.7 21.7,6.5 22.4,6.5 C22.6,6.5 22.7,6.6 22.8,6.8 C23.2,7.9 23.3,9 22.9,10.2 C22.8,10.4 22.9,10.5 23,10.7 C23.5,11.3 23.9,12.1 24.1,12.9 C24.5,14.7 24.3,16.6 23.5,18.3 C22.7,20 21.2,20.8 19.5,21.3 C18.9,21.4 18.3,21.5 17.7,21.7 C18.5,22.5 18.7,23.6 18.6,24.6 L18.6,28.2 C18.6,28.8 18.9,29.1 19.3,29.1 C19.4,29.1 19.6,29.1 19.7,29 C26.9,26.4 31.1,18.7 29.2,11.4 L29.2,11.4 Z" id="Shape" sketch:type="MSShapeGroup"></path>
        </g>
    </g>
</svg>
